resources/svg/git-repository-commits-line.svg

<svg fill="currentColor" viewBox="0 0 24 24" xmlns="http://www.w3.org/2000/svg"><path d="M18 16V14H19V4H6V14.0354C6.1633 14.0121 6.33024 14 6.5 14H8V16H6.5C5.67157 16 5 16.6716 5 17.5C5 18.3284 5.67157 19 6.5 19H10V21H6.5C4.567 21 3 19.433 3 17.5V5C3 3.34315 4.34315 2 6 2H20C20.5523 2 21 2.44772 21 3V20C21 20.5523 20.5523 21 20 21H16V19H19V16H18ZM7 5H9V7H7V5ZM7 8H9V10H7V8ZM14 17V23H12V17H9L13 12L17 17H14Z"/></svg>

<svg xmlns="http://www.w3.org/2000/svg" viewBox="0 0 24 24" fill="currentColor">
    <g>
        <path fill="none" d="M0 0h24v24H0z"/>
        <path fill-rule="nonzero" d="M18 16v-2h1V4H6v10.035A3.53 3.53 0 0 1 6.5 14H8v2H6.5a1.5 1.5 0 0 0 0 3H10v2H6.5A3.5 3.5 0 0 1 3 17.5V5a3 3 0 0 1 3-3h14a1 1 0 0 1 1 1v17a1 1 0 0 1-1 1h-4v-2h3v-3h-1zM7 5h2v2H7V5zm0 3h2v2H7V8zm7 9v6h-2v-6H9l4-5 4 5h-3z"/>
    </g>
</svg>
